flaticon/business/coin-6.svg

<svg xmlns="http://www.w3.org/2000/svg" width="32" height="32" viewBox="0 0 24 24">
    <path d="M 12 3.601562 C 5.269531 3.601562 0 6.234375 0 9.601562 L 0 13.199219 C 0 16.5625 5.269531 19.199219 12 19.199219 C 18.730469 19.199219 24 16.5625 24 13.199219 L 24 9.601562 C 24 6.234375 18.730469 3.601562 12 3.601562 Z M 12 4.398438 C 18.070312 4.398438 23.199219 6.78125 23.199219 9.601562 C 23.199219 12.417969 18.070312 14.800781 12 14.800781 C 5.929688 14.800781 0.800781 12.417969 0.800781 9.601562 C 0.800781 6.78125 5.929688 4.398438 12 4.398438 Z M 13.878906 15.53125 C 13.902344 15.527344 13.929688 15.523438 13.953125 15.523438 C 14.207031 15.503906 14.457031 15.480469 14.703125 15.453125 C 14.734375 15.449219 14.769531 15.445312 14.800781 15.441406 L 14.800781 18.226562 C 14.40625 18.277344 14.007812 18.316406 13.601562 18.34375 L 13.601562 15.546875 C 13.691406 15.542969 13.785156 15.535156 13.878906 15.53125 Z M 15.601562 15.335938 C 15.621094 15.332031 15.640625 15.328125 15.660156 15.324219 C 15.695312 15.320312 15.734375 15.3125 15.773438 15.308594 C 16 15.269531 16.222656 15.230469 16.445312 15.1875 C 16.496094 15.175781 16.550781 15.167969 16.601562 15.15625 C 16.667969 15.144531 16.734375 15.128906 16.800781 15.117188 L 16.800781 17.878906 C 16.410156 17.96875 16.011719 18.042969 15.601562 18.109375 Z M 17.601562 14.925781 C 17.757812 14.886719 17.910156 14.84375 18.0625 14.800781 C 18.105469 14.789062 18.148438 14.777344 18.1875 14.765625 C 18.257812 14.742188 18.328125 14.722656 18.398438 14.699219 L 18.398438 17.433594 C 18.140625 17.519531 17.875 17.601562 17.597656 17.675781 L 17.597656 14.925781 Z M 19.199219 14.429688 C 19.3125 14.390625 19.425781 14.34375 19.535156 14.300781 C 19.566406 14.289062 19.597656 14.277344 19.625 14.265625 C 19.753906 14.214844 19.878906 14.160156 20 14.105469 L 20 16.796875 C 19.746094 16.917969 19.476562 17.035156 19.199219 17.144531 Z M 20.800781 13.714844 C 20.8125 13.707031 20.828125 13.703125 20.84375 13.695312 C 20.859375 13.683594 20.878906 13.675781 20.894531 13.667969 C 21.070312 13.570312 21.238281 13.472656 21.398438 13.371094 C 21.4375 13.347656 21.472656 13.324219 21.507812 13.300781 C 21.539062 13.28125 21.570312 13.261719 21.601562 13.242188 L 21.601562 15.835938 C 21.359375 16.019531 21.089844 16.199219 20.800781 16.371094 Z M 2.398438 13.242188 C 2.429688 13.261719 2.460938 13.28125 2.492188 13.300781 C 2.527344 13.324219 2.5625 13.347656 2.601562 13.371094 C 2.761719 13.472656 2.929688 13.570312 3.105469 13.667969 C 3.121094 13.675781 3.140625 13.683594 3.15625 13.691406 C 3.171875 13.703125 3.183594 13.707031 3.199219 13.714844 L 3.199219 16.371094 C 2.910156 16.199219 2.644531 16.019531 2.398438 15.835938 Z M 4 14.105469 C 4.125 14.160156 4.246094 14.214844 4.375 14.265625 C 4.402344 14.277344 4.433594 14.289062 4.460938 14.300781 C 4.574219 14.34375 4.6875 14.390625 4.800781 14.429688 L 4.800781 17.144531 C 4.523438 17.035156 4.253906 16.917969 4 16.796875 Z M 5.601562 14.703125 C 5.671875 14.722656 5.742188 14.746094 5.8125 14.765625 C 5.851562 14.777344 5.894531 14.789062 5.9375 14.800781 C 6.089844 14.84375 6.242188 14.886719 6.398438 14.929688 L 6.398438 17.675781 C 6.125 17.601562 5.859375 17.519531 5.601562 17.4375 Z M 7.199219 15.117188 C 7.265625 15.128906 7.332031 15.144531 7.398438 15.15625 C 7.449219 15.167969 7.503906 15.175781 7.554688 15.1875 C 7.777344 15.230469 8 15.269531 8.230469 15.308594 C 8.265625 15.3125 8.304688 15.320312 8.339844 15.324219 C 8.359375 15.328125 8.378906 15.332031 8.398438 15.335938 L 8.398438 18.113281 C 7.988281 18.042969 7.589844 17.96875 7.199219 17.878906 Z M 9.199219 15.441406 C 9.230469 15.445312 9.265625 15.449219 9.296875 15.453125 C 9.542969 15.476562 9.792969 15.503906 10.046875 15.523438 C 10.070312 15.523438 10.097656 15.527344 10.121094 15.527344 C 10.214844 15.535156 10.308594 15.542969 10.398438 15.546875 L 10.398438 18.34375 C 9.992188 18.316406 9.59375 18.277344 9.199219 18.226562 Z M 0.800781 13.199219 L 0.800781 11.796875 C 0.8125 11.8125 0.828125 11.828125 0.839844 11.84375 C 0.933594 11.960938 1.03125 12.078125 1.136719 12.191406 C 1.144531 12.199219 1.148438 12.207031 1.15625 12.214844 C 1.269531 12.335938 1.394531 12.449219 1.523438 12.566406 C 1.546875 12.589844 1.574219 12.613281 1.601562 12.632812 L 1.601562 15.089844 C 1.085938 14.5 0.800781 13.863281 0.800781 13.199219 Z M 11.199219 18.382812 L 11.199219 15.585938 C 11.464844 15.59375 11.730469 15.601562 12 15.601562 C 12.269531 15.601562 12.535156 15.59375 12.800781 15.585938 L 12.800781 18.382812 C 12.535156 18.394531 12.269531 18.398438 12 18.398438 C 11.730469 18.398438 11.464844 18.394531 11.199219 18.382812 Z M 23.199219 11.796875 L 23.199219 13.199219 C 23.199219 13.863281 22.914062 14.5 22.398438 15.089844 L 22.398438 12.636719 C 22.425781 12.613281 22.453125 12.589844 22.476562 12.566406 C 22.605469 12.449219 22.730469 12.332031 22.84375 12.214844 C 22.851562 12.207031 22.855469 12.195312 22.863281 12.1875 C 22.96875 12.074219 23.066406 11.960938 23.160156 11.84375 C 23.171875 11.828125 23.1875 11.8125 23.199219 11.796875 Z M 23.199219 11.796875"/>
    <path d="M6.386719 13.242188L6.28125 13.28125 7.660156 13.570312C7.855469 13.609375 8.054688 13.640625 8.25 13.675781 8.289062 13.683594 8.328125 13.691406 8.367188 13.699219 8.589844 13.734375 8.816406 13.769531 9.042969 13.800781 9.199219 13.824219 9.355469 13.84375 9.515625 13.859375 9.660156 13.875 9.804688 13.890625 9.949219 13.90625 10.21875 13.929688 10.492188 13.949219 10.769531 13.964844 10.820312 13.96875 10.871094 13.972656 10.921875 13.972656 11.277344 13.992188 11.636719 14 12 14 12.355469 14 12.707031 13.992188 13.050781 13.976562 13.105469 13.972656 13.15625 13.96875 13.210938 13.964844 13.476562 13.953125 13.742188 13.933594 14 13.910156 14.160156 13.894531 14.316406 13.878906 14.476562 13.859375 14.613281 13.84375 14.753906 13.828125 14.890625 13.808594 15.140625 13.777344 15.390625 13.738281 15.636719 13.695312 15.660156 13.691406 15.683594 13.6875 15.707031 13.683594 15.898438 13.652344 16.09375 13.621094 16.285156 13.582031L17.644531 13.300781 17.542969 13.265625C20.507812 12.414062 22.398438 10.953125 22.398438 9.601562 22.398438 7.523438 17.953125 5.199219 12 5.199219 6.046875 5.199219 1.601562 7.523438 1.601562 9.601562 1.601562 10.945312 3.460938 12.390625 6.386719 13.242188zM10.371094 11.199219C9.550781 10.929688 9.082031 10.46875 8.976562 9.824219L8.933594 9.550781 8.664062 9.492188C8.488281 9.457031 8.429688 9.394531 8.417969 9.390625L8.511719 9.089844C8.523438 9.058594 8.632812 8.9375 8.886719 8.863281L9.066406 8.8125 9.144531 8.644531C9.246094 8.417969 9.382812 8.214844 9.558594 8.039062 9.632812 7.964844 9.691406 7.90625 9.742188 7.863281 9.914062 7.707031 10.019531 7.585938 10.050781 7.386719 10.054688 7.390625 10.054688 7.390625 10.058594 7.390625 10.644531 7.605469 11.320312 7.625 11.785156 7.605469 11.855469 7.605469 11.925781 7.601562 12 7.601562 13.613281 7.601562 14.523438 7.933594 14.855469 8.648438L14.933594 8.8125 15.109375 8.863281C15.367188 8.9375 15.476562 9.054688 15.488281 9.09375L15.582031 9.375C15.574219 9.390625 15.507812 9.457031 15.332031 9.492188L15.066406 9.550781 15.023438 9.824219C14.917969 10.46875 14.449219 10.929688 13.628906 11.199219L13.316406 11.300781 13.414062 12.132812C13.445312 12.417969 13.65625 12.664062 13.964844 12.78125L14.640625 13.03125C14.5625 13.042969 14.484375 13.054688 14.40625 13.0625 14.140625 13.089844 13.875 13.117188 13.609375 13.136719 13.480469 13.144531 13.359375 13.15625 13.230469 13.164062 12.410156 13.207031 11.574219 13.207031 10.753906 13.160156 10.625 13.15625 10.5 13.144531 10.371094 13.132812 10.101562 13.113281 9.835938 13.089844 9.574219 13.058594 9.492188 13.050781 9.414062 13.039062 9.335938 13.03125L10.023438 12.78125C10.339844 12.667969 10.554688 12.417969 10.585938 12.128906L10.683594 11.300781zM12 6C17.957031 6 21.601562 8.332031 21.601562 9.601562 21.601562 10.53125 19.625 12.035156 16.21875 12.769531L14.246094 12.03125C14.226562 12.023438 14.210938 12.015625 14.203125 12.011719L14.183594 11.847656C15.195312 11.429688 15.605469 10.765625 15.757812 10.199219 15.988281 10.105469 16.167969 9.960938 16.273438 9.78125 16.386719 9.589844 16.410156 9.367188 16.34375 9.15625L16.253906 8.855469C16.160156 8.558594 15.882812 8.300781 15.496094 8.152344 14.808594 6.945312 13.183594 6.804688 12 6.804688 11.914062 6.804688 11.832031 6.804688 11.753906 6.808594 11.195312 6.828125 10.691406 6.769531 10.332031 6.640625 10.132812 6.566406 10.042969 6.511719 10.007812 6.488281 9.835938 6.359375 9.613281 6.375 9.46875 6.449219 9.316406 6.527344 9.222656 6.675781 9.222656 6.839844 9.222656 6.929688 9.230469 7.035156 9.25 7.152344 9.253906 7.179688 9.257812 7.203125 9.257812 7.21875 9.242188 7.234375 9.222656 7.253906 9.203125 7.273438 9.144531 7.324219 9.074219 7.390625 8.988281 7.476562 8.789062 7.675781 8.621094 7.90625 8.492188 8.15625 8.109375 8.304688 7.839844 8.558594 7.746094 8.855469L7.65625 9.15625C7.589844 9.367188 7.613281 9.589844 7.726562 9.777344 7.832031 9.960938 8.011719 10.105469 8.242188 10.199219 8.394531 10.765625 8.804688 11.425781 9.8125 11.84375L9.796875 12.003906C9.789062 12.011719 9.773438 12.019531 9.753906 12.027344L7.734375 12.757812C4.355469 12.019531 2.398438 10.527344 2.398438 9.601562 2.398438 8.332031 6.042969 6 12 6zM21.480469 20.160156C21.476562 20.152344 21.46875 20.148438 21.460938 20.140625 21.441406 20.121094 21.421875 20.105469 21.402344 20.085938 21.378906 20.070312 21.359375 20.054688 21.339844 20.046875 21.324219 20.039062 21.304688 20.03125 21.289062 20.023438 21.285156 20.023438 21.285156 20.023438 21.285156 20.023438 21.28125 20.023438 21.273438 20.023438 21.269531 20.023438 21.242188 20.015625 21.21875 20.007812 21.1875 20.003906 21.179688 20.003906 21.171875 20 21.160156 20L19.160156 20C18.941406 20 18.761719 20.179688 18.761719 20.398438 18.761719 20.621094 18.941406 20.800781 19.160156 20.800781L20.5625 20.800781C20.046875 21.996094 19.21875 23.199219 17.960938 23.199219 17.097656 23.199219 16.246094 22.425781 15.558594 21.023438 15.460938 20.824219 15.222656 20.746094 15.023438 20.839844 14.824219 20.9375 14.742188 21.175781 14.839844 21.375 15.902344 23.542969 17.125 24 17.960938 24 18.929688 24 20.25 23.488281 21.257812 21.195312L22.042969 22.238281C22.121094 22.34375 22.242188 22.398438 22.363281 22.398438 22.445312 22.398438 22.53125 22.375 22.601562 22.320312 22.777344 22.1875 22.816406 21.9375 22.683594 21.761719zM2.117188 3.839844C2.125 3.847656 2.132812 3.847656 2.136719 3.855469 2.164062 3.886719 2.195312 3.914062 2.234375 3.9375 2.246094 3.945312 2.257812 3.957031 2.273438 3.960938 2.285156 3.96875 2.300781 3.96875 2.3125 3.976562 2.3125 3.976562 2.3125 3.976562 2.316406 3.976562 2.328125 3.980469 2.339844 3.980469 2.351562 3.980469 2.378906 3.988281 2.40625 4 2.4375 4L2.449219 4C2.449219 4 2.453125 4 2.453125 4L4.4375 4C4.660156 4 4.839844 3.820312 4.839844 3.601562 4.839844 3.378906 4.660156 3.199219 4.4375 3.199219L3.039062 3.199219C3.550781 2.003906 4.382812.800781 5.636719.800781 6.5.800781 7.355469 1.574219 8.039062 2.976562 8.136719 3.175781 8.378906 3.257812 8.574219 3.160156 8.773438 3.0625 8.855469 2.824219 8.757812 2.625 7.699219.457031 6.476562 0 5.636719 0 4.671875 0 3.351562.511719 2.339844 2.804688L1.558594 1.761719C1.425781 1.582031 1.175781 1.546875.996094 1.679688.820312 1.8125.785156 2.0625.917969 2.238281zM2.117188 3.839844"/>
</svg>

<svg xmlns="http://www.w3.org/2000/svg" width="32" height="32" viewBox="0 0 24 24">
    <path d="M12 3.602c-6.73 0-12 2.632-12 6v3.597c0 3.364 5.27 6 12 6s12-2.637 12-6V9.602c0-3.368-5.27-6-12-6zm0 .796c6.07 0 11.2 2.383 11.2 5.204 0 2.816-5.13 5.199-11.2 5.199C5.93 14.8.8 12.418.8 9.6c0-2.82 5.13-5.203 11.2-5.203zm1.879 11.133a22.235 22.235 0 0 0 .824-.078l.098-.012v2.786c-.395.05-.793.09-1.2.117v-2.797c.09-.004.184-.012.278-.016zm1.723-.195l.058-.012c.035-.004.074-.011.113-.015.227-.04.45-.079.672-.121.051-.012.106-.02.157-.032.066-.011.132-.027.199-.039v2.762c-.39.09-.79.164-1.2.23zm2-.41c.156-.04.308-.082.46-.125l.125-.035c.07-.024.141-.043.211-.067v2.735a13.83 13.83 0 0 1-.8.242v-2.75zm1.597-.496c.113-.04.227-.086.336-.13a8.322 8.322 0 0 0 .465-.195v2.692a12.65 12.65 0 0 1-.8.348zm1.602-.715c.012-.008.027-.012.043-.02.015-.011.035-.02.05-.027a10.094 10.094 0 0 0 .614-.367l.094-.059v2.594a8.641 8.641 0 0 1-.801.535zm-18.403-.473l.094.059c.035.023.07.047.11.07.16.102.328.2.503.297l.051.023c.016.012.028.016.043.024v2.656a9.2 9.2 0 0 1-.8-.535zM4 14.105c.125.055.246.11.375.16l.086.036c.113.043.226.09.34.129v2.715A12.65 12.65 0 0 1 4 16.797zm1.602.598l.21.063.125.035.461.129v2.746c-.273-.074-.539-.156-.796-.238zm1.597.414c.067.012.133.028.2.04.05.011.105.019.156.03.222.043.445.083.675.122l.11.015.058.012v2.777A21.72 21.72 0 0 1 7.2 17.88zm2 .324l.098.012c.246.024.496.05.75.07.023 0 .05.004.074.004.094.008.188.016.277.02v2.797a19.784 19.784 0 0 1-1.199-.117zM.801 13.2v-1.402c.011.015.027.031.039.047.094.117.191.234.297.347.008.008.011.016.02.024.113.12.238.234.366.351.024.024.051.047.079.067v2.457C1.086 14.5.8 13.863.8 13.2zm10.398 5.184v-2.797c.266.008.531.016.801.016s.535-.008.8-.016v2.797c-.265.012-.53.015-.8.015s-.535-.003-.8-.015zm12-6.586v1.402c0 .664-.285 1.301-.8 1.89v-2.452c.027-.024.054-.047.078-.07.128-.118.253-.235.367-.352.008-.008.011-.02.02-.027.105-.114.202-.227.296-.344.012-.016.027-.031.04-.047zm0 0"/>
    <path d="M6.387 13.242l-.106.04 1.38.288c.194.04.394.07.589.106l.117.023c.223.035.45.07.676.102.156.023.312.043.473.058l.433.047a27.001 27.001 0 0 0 .973.067 23.185 23.185 0 0 0 2.129.004l.16-.012a17.051 17.051 0 0 0 1.266-.106c.136-.015.277-.03.414-.05.25-.032.5-.07.746-.114l.07-.011c.191-.032.387-.063.578-.102l1.36-.281-.102-.035c2.965-.852 4.855-2.313 4.855-3.664 0-2.079-4.445-4.403-10.398-4.403-5.953 0-10.398 2.324-10.398 4.403 0 1.343 1.859 2.789 4.785 3.64zM10.37 11.2c-.82-.27-1.289-.73-1.394-1.375l-.043-.273-.27-.059c-.176-.035-.234-.097-.246-.101l.094-.301c.011-.031.12-.152.375-.227l.18-.05.078-.168c.101-.227.238-.43.414-.606.074-.074.132-.133.183-.176.172-.156.278-.277.309-.476.004.004.004.004.008.004.586.214 1.261.234 1.726.214.07 0 .14-.003.215-.003 1.613 0 2.523.332 2.855 1.046l.079.165.175.05c.258.075.368.192.38.23l.093.282c-.008.016-.074.082-.25.117l-.266.059-.043.273c-.105.645-.574 1.106-1.394 1.375l-.313.102.098.832c.031.285.242.531.55.648l.677.25c-.079.012-.157.024-.235.031-.265.028-.531.055-.797.075-.129.008-.25.02-.379.027-.82.043-1.656.043-2.476-.004-.129-.004-.254-.015-.383-.027a17.23 17.23 0 0 1-.797-.074c-.082-.008-.16-.02-.238-.028l.687-.25c.317-.113.532-.363.563-.652l.098-.828zM12 6c5.957 0 9.602 2.332 9.602 3.602 0 .93-1.977 2.433-5.383 3.168l-1.973-.739c-.02-.008-.035-.015-.043-.02l-.02-.163c1.012-.418 1.422-1.082 1.575-1.649.23-.094.41-.238.515-.418a.763.763 0 0 0 .07-.625l-.09-.3c-.093-.297-.37-.555-.757-.704C14.81 6.945 13.184 6.805 12 6.805c-.086 0-.168 0-.246.004-.559.02-1.063-.04-1.422-.168-.2-.075-.289-.13-.324-.153a.522.522 0 0 0-.54-.039.44.44 0 0 0-.245.39c0 .09.007.196.027.313.004.028.008.051.008.067l-.055.054c-.058.051-.129.118-.215.204-.199.199-.367.43-.496.68-.383.148-.652.402-.746.698l-.09.301a.753.753 0 0 0 .07.621c.106.184.286.328.516.422.153.567.563 1.227 1.57 1.645l-.015.16a.14.14 0 0 1-.043.023l-2.02.73c-3.379-.737-5.336-2.23-5.336-3.155C2.398 8.332 6.043 6 12 6zm0 0M21.48 20.16c-.003-.008-.011-.012-.02-.02l-.058-.054c-.023-.016-.043-.031-.062-.04l-.05-.023h-.02c-.028-.007-.051-.015-.082-.02-.008 0-.016-.003-.028-.003h-2a.4.4 0 0 0 0 .8h1.402c-.515 1.196-1.343 2.4-2.601 2.4-.863 0-1.715-.774-2.402-2.177a.402.402 0 0 0-.536-.183.399.399 0 0 0-.183.535C15.902 23.543 17.125 24 17.96 24c.97 0 2.29-.512 3.298-2.805l.785 1.043c.078.106.2.16.32.16a.4.4 0 0 0 .32-.637zm0 0M2.117 3.84c.008.008.016.008.02.015a.403.403 0 0 0 .097.083c.012.007.024.019.04.023.011.008.027.008.038.016h.004a.108.108 0 0 0 .036.003c.027.008.054.02.086.02h2a.401.401 0 1 0 0-.8H3.038C3.551 2.003 4.383.8 5.637.8c.863 0 1.718.774 2.402 2.177a.4.4 0 1 0 .719-.352C7.699.457 6.477 0 5.637 0 4.672 0 3.352.512 2.34 2.805l-.781-1.043a.4.4 0 1 0-.641.476zm0 0"/>
</svg>
